X:1
T:Aus tieffer Noth schrei ich zu dir (homofoon)
T:Hans Leo Hassler
T:Aus tieffer Noth (homophonic)
C:Hans Leo Hassler
%%score [ 1 2 3 4 ]
L:1/8
Q:1/4=180
M:4/2
K:C
V:1 treble nm="Soprano" snm="S"
V:2 treble nm="Alto" snm="A"
V:3 treble-8 nm="Tenor" snm="T"
V:4 bass nm="Bass" snm="B"
V:1
"^Psalm 130 De profundis clamavi" B8 E4 B4 | c4 B4 G4 A4 | B8 B8 | A4 d4 c4 A4 | G4 F4 E8 :| %5
w: Aus tief- fer|Noth schrey ich zu|dir, Herr|Gott er- hör mein|rüf- * fen.|
w: Dein gne- dig|Oh- ren kehr zu|mir, und|mei- ner Bitt sie|öf- * fen.|
 A8 G4 c4 | B4 c4 d6 c2 | B4 B4 A8 | c8 B4 c4 | d8 G8 | B4 c4 A8 | G8 z4 G4 | c8 B8 | A8 E4 A4 | %14
w: Denn so du|wilt das se- *|* hen an,|was Sünd und|Un- recht|ist _ ge-|than, wer|kan, Herr,|für _ dir|
w: |||||||||
 G8 F8 | E16 |] %16
w: blei- *|ben.|
w: ||
V:2
 B,8 C4 G,4 | A,4 D4 C4 C4 | B,8 z4 D4 | F4 F4 E4 D4 | E4 D4 B,8 :| E8 E4 E4 | G4 G4 F6 ED | %7
w: Aus tief- fer|Noth schrey ich zu|dir, Herr|Gott er- hör mein|rüf- * fen.|Denn so du|wilt das se- * *|
w: Dein gne- dig|Oh- ren kehr zu|mir, und|mei- ner Bitt sie|öf- * fen.|||
 E4 E4 ^C8 | E8 G4 G4 | D12 E4 | D4 E4 D8 | B,8 z4 E4 | C8 D8 | F6 ED C4 E4 | E8 D8 | C8 B,8 |] %16
w: * hen an,|was Sünd und|Un- recht|ist _ ge-|than, wer|kan, Herr,|für _ _ _ dir|blei- *|* ben.|
w: |||||||||
V:3
 G8 G4 D4 | E4 G4 E4 E4 | ^G8 B8 | A4 A4 A4 A4 | B2 c2 A4 ^G8 :| c8 B4 c4 | d4 G4 A8- | A4 ^G4 A8 | %8
w: Aus tief- fer|Noth schrey ich zu|dir, Herr|Gott er- hör mein|rüf- * * fen.|Denn so du|wilt das se-|* hen an,|
w: Dein gne- dig|Oh- ren kehr zu|mir, und|mei- ner Bitt sie|öf- * * fen.||||
 z4 c4 d4 e4 | A2 GA B8 c4 | B4 G8 ^F4 | G8 z4 E4 | E8 G8 | c6 BA G4 c4 | B4 c4 A8- | A8 ^G8 |] %16
w: was Sünd und|Un- * * * recht|ist _ ge-|than, wer|kan, Herr,|für _ _ _ dir|blei- * *|* ben.|
w: ||||||||
V:4
 E,8 C,4 B,,4 | A,,4 G,,4 C,4 A,,4 | E,8 G,8 | F,4 D,4 A,4 F,4 | E,2 C,2 D,4 E,8 :| A,,8 E,4 A,4 | %6
w: Aus tief- fer|Noth schrey ich zu|dir, Herr|Gott er- hör mein|rüf- * * fen.|Denn so du|
w: Dein gne- dig|Oh- ren kehr zu|mir, und|mei- ner Bitt sie|öf- * * fen.||
 G,4 E,4 D,6 A,,2 | E,4 E,4 A,,8 | A,8 G,4 E,4 | ^F,2 E,F, G,8 E,4 | G,4 C,4 D,8 | G,,8 z4 C,4 | %12
w: wilt das se- *|* hen an,|was Sünd und|Un- * * * recht|ist _ ge-|than, wer|
w: ||||||
 A,,8 G,,8 | F,,2 G,,2 A,,2 B,,2 C,4 A,,4 | E,4 C,4 D,8 | A,,8 E,8 |] %16
w: kan, Herr,|für _ _ _ _ dir|blei- * *|* ben.|
w: ||||

